X:1
T:Title
%%score { ( 1 4 ) | ( 2 3 ) }
L:1/8
M:4/4
K:Eb
V:1 treble nm="Grand Piano"
V:4 treble 
V:2 bass 
V:3 bass 
V:1
 z4 z2[Q:1/4=100] [EG][FA] | [GB]2 [EG]A [EGB]2 .[CAc]2 | [Ge]6 [Bd][Ac] | %3
 [GB]2 [Ac]2 [GB]2 [EG]2 |[M:3/4] [DF]6 |[M:1/4] [EG][FA] |[M:4/4] z4 z2 .c2 | %7
 [Ge]2 .[Ad]2 [B,GB]2 [EAc]2 | [EGB]3 [G,E] [A,DF]3 [G,B,E] |[M:3/4] [G,B,E]6 |[M:1/4] [G,E]2 | %11
[M:4/4] [DF]3 [DF] [DF]2 [FA]2 | G6 GA | B2 B2 B2 c2 | [DF]6 [EG][FA] | [GB]3 [GB] [GB]2 [Ge]2 | %16
[M:9/8] e2 c- c c2- c c2 |[M:4/4] B3 E [DF]3 E |[M:3/4] E6 |] %19
V:2
 z4 z2 [E,B,]2 | [E,B,]2 z F E,2 z[K:treble] d | [E,B,]6 [E,E]2 | [E,E]2 [E,E]2 [E,E]2 [E,B,]2 | %4
[M:3/4] [B,,B,]6 |[M:1/4] [E,B,]2 |[M:4/4] [E,B,]2 [E,B,]2 [E,B,]2 [E,B,]2 | %7
 [E,B,]2 z[K:treble] c[K:bass] E,2 A,,2 | B,,3 B,, B,,3 E, |[M:3/4] E,6 |[M:1/4] E,2 | %11
[M:4/4] [B,,B,]3 [B,,B,] [B,,B,]2 [B,,B,]2 | z4 z2 .B,2 | [E,G,E]2 [E,G,E]2 [E,G,E]2 [E,A,E]2 | %14
 [B,,B,]6 [E,B,]2 | [E,B,]3 [E,E] [E,E]2 [E,E]2 | %16
[M:9/8][K:treble] [CA]2 [A,EA]- [A,EA] [A,EA]2- [A,EA] [A,EA]2 | %17
[M:4/4] [B,EG]3[K:bass] [B,,G,] [B,,A,]3 [E,G,B,] |[M:3/4] [E,G,B,]6 |] %19
V:3
 x8 | z2 [E,B,]2 z2 E,2[K:treble] | x8 | x8 |[M:3/4] x6 |[M:1/4] x2 |[M:4/4] x8 | %7
 z2 [B,,B,]2[K:treble][K:bass] z4 | x8 |[M:3/4] x6 |[M:1/4] x2 |[M:4/4] x8 | %12
 [E,B,E]6 [E,E]-[E,A,E] | x8 | x8 | x8 |[M:9/8][K:treble] x9 |[M:4/4] x3[K:bass] x5 |[M:3/4] x6 |] %19
V:4
 x8 | x8 | x8 | x8 |[M:3/4] x6 |[M:1/4] x2 |[M:4/4] [GB]2 [GB]2 [GB]2 A-[Ad] | x8 | x8 | %9
[M:3/4] x6 |[M:1/4] x2 |[M:4/4] x8 | x8 | x8 | x8 | x8 |[M:9/8] x9 |[M:4/4] x8 |[M:3/4] x6 |] %19

